X: 7720
T: Colonel Hopkins
R: reel
M: 4/4
K: Gmajor
ge|:~dBGB d2 (ef)|g2 af gfed|bgaf gfed|1 BedB A2 ge:|2 egfa g2 (GA)||
B2 (dB) A2 (BA)|GABG AGFD|B2 (dB) A2 (BA)|GABG A2 (ge)|
dBGB d2 (ef)|g2 ~af gfed|bgaf gfed|egfa g2 ge||

